svgs/regular/file-waveform.svg

<svg xmlns="http://www.w3.org/2000/svg" viewBox="0 0 448 512"><!-- Font Awesome Pro 6.0.0-alpha2 by @fontawesome - https://fontawesome.com License - https://fontawesome.com/license (Commercial License) --><path d="M172.031 381.312C176.5 388 184 392 192 392C192.5 392 192.984 392 193.484 391.969C202.031 391.437 209.641 386.375 213.469 378.719L257.406 290.844L267.156 307.906C271.438 315.375 279.391 320 288 320H328C341.25 320 352 309.25 352 296S341.25 272 328 272H301.922L276.844 228.094C272.469 220.406 264.734 215.781 255.328 216C246.484 216.25 238.484 221.344 234.531 229.281L189.031 320.281L163.969 282.688C159.516 276 152.031 272 144 272H24C10.75 272 0 282.75 0 296S10.75 320 24 320H131.156L172.031 381.312ZM429.256 93.383L354.627 18.746C342.625 6.742 326.348 0 309.373 0H128C92.652 0 63.998 28.656 64 64L64.006 216C64.008 229.258 74.752 240 88.006 240H88.008C101.262 240 112.008 229.254 112.006 216L112 64.125C112 55.289 119.162 48.125 128 48.125H288.008V128C288.008 145.672 302.334 160 320.008 160H400.002V448C400.002 456.836 392.838 464 384.002 464H128.018C119.182 464 112.018 456.836 112.018 448L112.014 376C112.014 362.742 101.27 352 88.016 352S64.016 362.742 64.016 376L64.02 448C64.021 483.344 92.676 512 128.021 512H384C419.199 512 448 483.199 448 448V138.641C448 121.664 441.258 105.383 429.256 93.383Z"/></svg>

<svg xmlns="http://www.w3.org/2000/svg" viewBox="0 0 448 512"><!--! Font Awesome Pro 6.4.0 by @fontawesome - https://fontawesome.com License - https://fontawesome.com/license (Commercial License) Copyright 2023 Fonticons, Inc. --><path d="M384 464H128c-8.8 0-16-7.2-16-16V352H64v96c0 35.3 28.7 64 64 64H384c35.3 0 64-28.7 64-64V154.5c0-17-6.7-33.3-18.7-45.3L338.7 18.7C326.7 6.7 310.5 0 293.5 0H128C92.7 0 64 28.7 64 64V240h48V64c0-8.8 7.2-16 16-16H288v80c0 17.7 14.3 32 32 32h80V448c0 8.8-7.2 16-16 16zM276.8 228.1c-4.4-7.7-12.7-12.3-21.5-12.1s-16.8 5.3-20.8 13.3l-45.5 91L164 282.7C159.5 276 152 272 144 272H24c-13.3 0-24 10.7-24 24s10.7 24 24 24H131.2L172 381.3c4.7 7.1 12.9 11.2 21.5 10.6s16.1-5.6 20-13.2l43.9-87.9 9.8 17.1c4.3 7.5 12.2 12.1 20.8 12.1h40c13.3 0 24-10.7 24-24s-10.7-24-24-24H301.9l-25.1-43.9z"/></svg>
